X:1
T: Linlithgow Loch
T: Provost Dawson's Favourite
C:William Marshall
R:Strathspey
Q: 18
K:D
M:4/4
L:1/16
|:F2|D3E DA3 FD3 AF3|D3E DF3 E4 EF3|D3E DA3 FD3 AF3|dcde fd3 F4 F2F2|
D3E DA3 FD3 AF3|D3E DF3 E4 EF3|D3E DA3 FD3 AF3|dcde fd3 F4 F2G2|
d3e fd3 eB3 dA3|B3c df3 e4 e3f|d3e fd3 eB3 dA3|GB3 FA3 E4 E3A|
d3e fd3 eB3 dA3|B3c df3 e4 e3f|g3e gfed fedc d3A|GB3 FA3 d4 d2:|
